X: 116
T: Cock O' The North
R: jig
M: 6/8
L: 1/8
K: Dmaj
Q: 1/4=180
R: slide
M: 6/8
|: "D" F2 F FED | F2 A "G?" B2 A | "D" F2 F FED | "A" E2 E EDE |
"D" F2 F FED | F2 A "G?" B2 A | "D" F2 F "A" EFE | "D" DFE D3 :|
|: "D" d2 A "G?" B2 A | "D" d2 A "G?" B2 A | "D" F2 F FED | "A" E2 E EFA |
"D" d2 A "G?" B2 A | "D" d2 A "G?" B2 A | "D" F2 F "A" EFE | "D" DFE D3 :|

